usr/share/icons/biglinux-icons-material/scalable/apps/gtkhash.svg

<?xml version="1.0" encoding="UTF-8" standalone="no"?>
<svg
   width="24"
   height="24"
   viewBox="0 0 6.349875 6.349875"
   version="1.1"
   id="svg3"
   sodipodi:docname="org.gtkhash.gtkhash.svg"
   inkscape:version="1.3 (0e150ed6c4, 2023-07-21)"
   xmlns:inkscape="http://www.inkscape.org/namespaces/inkscape"
   xmlns:sodipodi="http://sodipodi.sourceforge.net/DTD/sodipodi-0.dtd"
   xmlns:xlink="http://www.w3.org/1999/xlink"
   xmlns="http://www.w3.org/2000/svg"
   xmlns:svg="http://www.w3.org/2000/svg">
  <defs
     id="defs3">
    <radialGradient
       fx="0"
       fy="0"
       cx="0"
       cy="0"
       r="1"
       gradientUnits="userSpaceOnUse"
       gradientTransform="matrix(0,16.5,-16.5,0,8.999651,0.749985)"
       spreadMethod="pad"
       id="radialGradient868-3">
      <stop
         style="stop-opacity:1;stop-color:#fafafa"
         offset="0"
         id="stop864-6" />
      <stop
         style="stop-opacity:1;stop-color:#c0c0c0"
         offset="1"
         id="stop866-7" />
    </radialGradient>
    <radialGradient
       inkscape:collect="always"
       xlink:href="#radialGradient868-3"
       id="radialGradient18"
       gradientUnits="userSpaceOnUse"
       gradientTransform="matrix(0,16.5,-16.5,0,8.999651,0.749985)"
       cx="0"
       cy="0"
       fx="0"
       fy="0"
       r="1"
       spreadMethod="pad" />
  </defs>
  <sodipodi:namedview
     id="namedview3"
     pagecolor="#ffffff"
     bordercolor="#000000"
     borderopacity="0.25"
     inkscape:showpageshadow="2"
     inkscape:pageopacity="0.0"
     inkscape:pagecheckerboard="0"
     inkscape:deskcolor="#d1d1d1"
     inkscape:zoom="12.671875"
     inkscape:cx="15.348952"
     inkscape:cy="17.479655"
     inkscape:window-width="2560"
     inkscape:window-height="998"
     inkscape:window-x="0"
     inkscape:window-y="0"
     inkscape:window-maximized="1"
     inkscape:current-layer="svg3" />
  <g
     id="g19"
     transform="translate(10.583297,1.1309096e-4)">
    <path
       id="circle9"
       style="fill:#ff6666;fill-opacity:1;stroke-width:1;paint-order:stroke markers fill"
       d="m -7.3839001,0.26457812 c -0.1900109,-5.2912e-4 -0.3798365,0.005563 -0.5699798,0.0180864 -0.028927,0.008114 -0.0592,0.0124021 -0.090949,0.0124021 -0.1954348,0.0151691 -0.389794,0.0466141 -0.5813484,0.0935325 -0.8212496,0.19543485 -1.3395598,0.70158488 -1.5543967,1.51719018 -0.100892,0.4162692 -0.146439,0.8393595 -0.136939,1.2665644 -0.0085,0.4025111 0.03207,0.8005519 0.118853,1.1931854 0.2039013,0.8738124 0.7453173,1.408078 1.6205408,1.6024546 0.4765929,0.097717 0.9572014,0.1351402 1.4422608,0.1090351 0.4328494,-0.00706 0.8532411,-0.080137 1.2613969,-0.2180702 0.504109,-0.1844991 0.8692538,-0.5203059 1.0939686,-1.0081874 0.121353,-0.281158 0.2001491,-0.5735244 0.2371901,-0.8779653 0.048329,-0.4342605 0.057488,-0.8680992 0.029972,-1.3037707 C -4.5341442,2.32332 -4.6013224,1.9858239 -4.7127979,1.6577473 -4.9114077,1.1134225 -5.2781426,0.73000114 -5.8140009,0.50951959 -6.1367859,0.38710824 -6.4701329,0.31276436 -6.814437,0.28524829 -7.0040511,0.27201945 -7.1938891,0.26510725 -7.3839001,0.26457812 Z" />
    <path
       id="path9"
       style="fill:#89d356;fill-opacity:1;stroke-width:0.26458;paint-order:stroke fill markers"
       d="m -4.5381349,2.4080743 -2.8700526,0.7689302 v 2.9072589 c 0.090737,-4.471e-4 0.1812944,-0.00234 0.2723294,-0.00723 0.4328494,-0.00706 0.8532411,-0.080137 1.2613969,-0.2180702 0.504109,-0.1844991 0.8692538,-0.5203059 1.0939686,-1.0081874 0.121353,-0.281158 0.2001491,-0.5735244 0.2371901,-0.8779653 0.048329,-0.4342605 0.057488,-0.8680992 0.029972,-1.3037707 -0.00527,-0.087482 -0.013614,-0.1745412 -0.024804,-0.2609609 z" />
    <path
       id="path10"
       style="fill:#6f96ec;fill-opacity:1;stroke-width:1;paint-order:stroke fill markers"
       d="m -10.27514,2.4091078 c -0.03379,0.2524334 -0.04807,0.5072408 -0.04237,0.7632459 -0.0085,0.4025111 0.03207,0.8005519 0.118853,1.1931854 0.2039016,0.8738124 0.7453176,1.408078 1.6205411,1.6024546 0.3873166,0.079413 0.7775399,0.1182421 1.1704482,0.1162697 V 3.1770045 Z" />
    <g
       id="g18"
       transform="matrix(0.30982091,0,0,0.30982091,-10.196681,0.38654105)"
       style="opacity:0.15;stroke-width:1.13863">
      <g
         id="g17"
         style="stroke-width:1.13863">
        <g
           id="g16"
           style="stroke-width:1.13863">
          <path
             d="m 7.195,0.836 c 0.09,0 0.176,-0.012 0.258,-0.035 1.078,-0.071 2.156,-0.067 3.231,0.008 0.976,0.078 1.921,0.289 2.836,0.636 1.519,0.625 2.558,1.711 3.121,3.254 0.316,0.93 0.507,1.887 0.566,2.867 0.078,1.235 0.051,2.465 -0.086,3.696 -0.105,0.863 -0.328,1.691 -0.672,2.488 -0.637,1.383 -1.672,2.336 -3.101,2.859 C 12.191,17 11,17.207 9.773,17.227 8.398,17.301 7.035,17.195 5.684,16.918 3.203,16.367 1.668,14.852 1.09,12.375 0.844,11.262 0.73,10.133 0.754,8.992 0.727,7.781 0.855,6.582 1.141,5.402 1.75,3.09 3.219,1.656 5.547,1.102 6.09,0.969 6.641,0.879 7.195,0.836 Z"
             style="fill:url(#radialGradient18);fill-rule:evenodd;stroke:none;stroke-width:1.13863"
             id="path16" />
        </g>
      </g>
    </g>
  </g>
  <path
     d="M 3.7606819,2.8785807 3.6449963,3.4712942 H 4.1512946 V 3.7173 H 3.6014403 L 3.4425472,4.4978281 H 3.182255 L 3.3411482,3.7173 H 2.8062773 L 2.6616706,4.4978281 H 2.4013784 L 2.5459851,3.7173 H 2.0682601 V 3.4712942 H 2.5888445 L 2.7045303,2.8785807 H 2.2132157 V 2.6325749 H 2.7480865 L 2.9069794,1.8520468 H 3.1672716 L 3.0230133,2.6325749 H 3.5435976 L 3.7028391,1.8520468 H 3.9631316 L 3.804238,2.6325749 H 4.2816149 V 2.8785807 Z M 2.8494856,3.4712942 H 3.3847048 L 3.5003902,2.8785807 H 2.9651709 Z"
     fill="#ffffff"
     aria-label="#"
     id="path11"
     style="stroke-width:1" />
</svg>

<svg xmlns="http://www.w3.org/2000/svg" xmlns:xlink="http://www.w3.org/1999/xlink" width="24" height="24" viewBox="0 0 6.35 6.35"><defs><radialGradient id="a" cx="0" cy="0" r="1" fx="0" fy="0" gradientTransform="matrix(0 16.5 -16.5 0 9 .75)" gradientUnits="userSpaceOnUse" spreadMethod="pad"><stop offset="0" style="stop-opacity:1;stop-color:#fafafa"/><stop offset="1" style="stop-opacity:1;stop-color:silver"/></radialGradient><radialGradient xlink:href="#a" id="b" cx="0" cy="0" r="1" fx="0" fy="0" gradientTransform="matrix(0 16.5 -16.5 0 9 .75)" gradientUnits="userSpaceOnUse" spreadMethod="pad"/></defs><path d="M-7.384.265c-.19-.001-.38.005-.57.018a.335.335 0 0 1-.09.012c-.196.015-.39.047-.582.094-.821.195-1.34.701-1.555 1.517-.1.416-.146.84-.137 1.266-.008.403.033.8.12 1.194.203.873.745 1.408 1.62 1.602.476.098.957.135 1.442.109.433-.007.853-.08 1.262-.218.504-.185.869-.52 1.094-1.008.12-.281.2-.574.237-.878.048-.434.057-.868.03-1.304a3.852 3.852 0 0 0-.2-1.011A1.892 1.892 0 0 0-5.814.51a3.62 3.62 0 0 0-1-.225c-.19-.013-.38-.02-.57-.02Z" style="fill:#f66;fill-opacity:1;stroke-width:1;paint-order:stroke markers fill" transform="translate(10.583)"/><path d="m-4.538 2.408-2.87.769v2.907c.09 0 .181-.002.272-.007.433-.007.853-.08 1.262-.218.504-.185.869-.52 1.094-1.008.12-.281.2-.574.237-.878.048-.434.057-.868.03-1.304a3.823 3.823 0 0 0-.025-.26z" style="fill:#89d356;fill-opacity:1;stroke-width:.26458;paint-order:stroke fill markers" transform="translate(10.583)"/><path d="M-10.275 2.41a4.923 4.923 0 0 0-.043.762c-.008.403.033.8.12 1.194.203.873.745 1.408 1.62 1.602.387.08.777.118 1.17.116V3.177Z" style="fill:#6f96ec;fill-opacity:1;stroke-width:1;paint-order:stroke fill markers" transform="translate(10.583)"/><g style="opacity:.15;stroke-width:1.13863"><g style="stroke-width:1.13863"><path d="M7.195.836c.09 0 .176-.012.258-.035a23.86 23.86 0 0 1 3.231.008 10.26 10.26 0 0 1 2.836.636c1.519.625 2.558 1.711 3.121 3.254.316.93.507 1.887.566 2.867a21.227 21.227 0 0 1-.086 3.696 8.976 8.976 0 0 1-.672 2.488c-.637 1.383-1.672 2.336-3.101 2.859a11.693 11.693 0 0 1-3.575.618 15.998 15.998 0 0 1-4.089-.309c-2.481-.551-4.016-2.066-4.594-4.543a14.244 14.244 0 0 1-.336-3.383c-.027-1.211.101-2.41.387-3.59.609-2.312 2.078-3.746 4.406-4.3A10.27 10.27 0 0 1 7.195.836Z" style="fill:url(#b);fill-rule:evenodd;stroke:none;stroke-width:1.13863" transform="translate(.387 .387) scale(.30982)"/></g></g><path fill="#fff" d="m3.76 2.879-.115.592h.506v.246h-.55l-.158.78h-.26l.158-.78h-.535l-.144.78h-.26l.144-.78h-.478v-.246h.52l.117-.592h-.492v-.246h.535l.159-.781h.26l-.144.78h.52l.16-.78h.26l-.159.78h.478v.247Zm-.91.592h.535L3.5 2.88h-.535Z" aria-label="#" style="stroke-width:1"/></svg>
